X: 110
T: No_38_Scalp_Song.krn
%%abc-version 2.0
%%abcx-abcm2ps-target-version 5.9.1 (29 Sep 2008)
%%abc-creator hum2abc beta
%%abcx-conversion-date 2020/08/10 18:54:57
%%gracespace 0 6 6
%%humdrum-veritas 1982634143
%%humdrum-veritas-data 1989236159
%%linebreak <none>
%%barnumbers 0
L: 1/4
M: 3/4
%%staves {1 2}
V: 1 clef=bass
V: 2 clef=bass
K: F
[V:1] D3//D// [I:setbarnb 1]| 
[V:2] z | 
[V:1] D>A,D | 
[V:2] G,,/G,,/ G,,/G,,/ G,,/G,,/ | 
[V:1] D2D/D/ | 
[V:2] z3 | 
[V:1] D>A,G, | 
[V:2] z3 | 
[V:1] G,2G, | 
[V:2] z3 | 
[V:1] F,>D,A, | 
[V:2] z3 | 
[V:1] A,2A, | 
[V:2] z3 | 
[V:1] G,>E,G, | 
[V:2] z3 | 
[V:1] G,2G, | 
[V:2] z3 | 
[V:1] F,>D,F, | 
[V:2] z3 | 
[V:1] D,3 | 
[V:2] z3 | 
[V:1] A,,>A,,A,,- | 
[V:2] z3 | 
[V:1] A,,2z |]  
[V:2] z3 |]  


